X:1
T:Goethe-Lieder
T:Hoch beglückt in deiner Liebe
T:40. Hoch beglückt in deiner Liebe
T:Hugo Wolf
T:Goethe-Lieder
T:Johann Wolfgang von Goethe
T:OpenScore (CC0)
T:OpenScore (CC0)
T:OpenScore (CC0)
T:OpenScore (CC0)
T:OpenScore (CC0)
T:OpenScore (CC0)
C:Hugo Wolf
Z:Johann Wolfgang von Goethe
Z:OpenScore (CC0)
%%score 1 { ( 2 4 ) | 3 }
L:1/8
Q:1/4=180
M:4/4
K:Bb
V:1 treble nm="Voice"
V:2 treble nm="Piano"
V:4 treble 
V:3 bass 
V:1
"^Äußerst leidenschaftlich und sehr lebhaft" z8 | z8 | z8 | z8 | z8 | z8 | z8 | z8 | z8 | z8 | %10
w: ||||||||||
!mp! f3 f =e2 _e2 | d2 c2 _c2 B2 | B2 B2 B2 g2 | g3 c c4 | z8 | =B2 c2 d2 f2 | =B2 c2 g2 f2 | %17
w: Hoch be- glückt in|dei- ner Lie- be|schelt ich nicht Ge-|le- gen- heit,||ward sie gleich an|dir zum Die- be,|
 =e2 d2 c2 ed | c8- | c6 =E2 | F4 z4 | z8 | %22
w: wie mich solch ein *|Raub|_ er-|freut!||
"^immer ein wenig nachlassend"[Q:1/4=170] c2 c2[Q:1/4=160] c2 c2 | %23
w: Und wo- zu denn|
[Q:1/4=150] c3 _e[Q:1/4=140] B2 F2 ||[M:2/4][Q:1/4=130] z4 || %25
w: auch be- rau- ben?||
[M:4/4]"^zunehmend"[Q:1/4=140] B2 =B2[Q:1/4=145] c2 _d2 |[Q:1/4=150] =d2 e2[Q:1/4=157] =e f3- | %27
w: Gib dich mir aus|frei- er Wahl; _|
[Q:1/4=162] f4 z4[Q:1/4=168][Q:1/4=175] |[Q:1/4=180]"^Tempo I" B2 g2 f3 _c | B2 _e2 d3 _d | %30
w: _|gar zu ger- ne|möcht ich glau- ben:|
 z2 =e2 z2 ag | f3 d c2 B2 | g8- | g8- | g2 z2 z4 | z8 |!mp! d2 f2 =e2 _e2 | d2 c2 _c2 B2 | %38
w: ja, ich *|bin's die dich be-|stahl.|_|||Was so wil- lig|du ge- ge- ben,|
 B2 B2 g3 g | g2 g2 c4 | z8 | =B2 c2 d2 f2 | =B2 c2 g2 f2 | =e2 d2 c2 ed | c8- | c6 =E2 | F4 z4 | %47
w: bringt dir herr- li-|chen Ge- winn;||mei- ne Ruh, mein|rei- ches Le- ben|geb ich freu- dig, *|nimm|_ es|hin!|
 z8 |"^immer ein wenig nachlassend"[Q:1/4=170] z2 c4 _G2[Q:1/4=165] |[Q:1/4=160] F6 z2[Q:1/4=155] | %50
w: |Scher- ze|nicht!|
[Q:1/4=150] z2 e4 d c[Q:1/4=145] |[Q:1/4=140] _G4 F2 z2 | %52
w: Nichts von Ver-|ar- men!|
"^zunehmend"[Q:1/4=145] B2 =B2[Q:1/4=150] c2 _d2 |[Q:1/4=155] =d2 e2[Q:1/4=160] (=e f3-) | %54
w: Macht uns nicht die|Lie- be reich? *|
[Q:1/4=165] f4 z4[Q:1/4=170][Q:1/4=175] |[Q:1/4=180]"^Tempo I" B2 g2 f3 _c | B2 e2 d3 ^c | %57
w: |Halt ich dich in|mei- nen Ar- men,|
 z2 =e2- ef ag | f2 B2 g4- | g8- |"^poco rit."[Q:1/4=170] g6 f2 | %61
w: je- * * dem *|Glück ist mei-||* nes|
"^noch lebhafter"[Q:1/4=185] B4 z4 | z8 | z8 | z8 | z8 | z8 | z8 | z8 | z8 | z8 | %71
w: gleich.||||||||||
"^beschleunigend"[Q:1/4=190] z8 |[Q:1/4=195] z8 |[Q:1/4=200] z8 | z8 | z8 | z8 | z8 | z8 |] %79
w: ||||||||
V:2
!p! [EFc]3!<(! [EFc] [DF=B]2 [_D=E_B]2 | [C_EA]2 [B,EG]2 [=B,D^F]2 [C_E=F]2!<)! | %2
!p! [DBd]3!<(! [DBd] [DBd]2 [=EB_d]2 | [_EFc]2 [E_G_c]2 [=DGB]2 [EF=A]2!<)! | %4
!mf!!<(! [_G_g]3 [Gg] [Gg] =g([eg]c')!<)! |!f!!<(! [Gg]3 [Gg] [Gg] _a([fa]d')!<)! | %6
!f! [=B=b]3 [Bb] [Bb][cc'] ([g_bc']g') |!<(! (([^f=b]c')) ([gc']g') ([fb]c') ([gc']g')!<)! | %8
!ff! [ga_e'g']3 [_g_g'] [ff'][=e=e'][_e_e'][dd'] | [_d_d'][cc'][=B=b][_B_b] [Aa][_A_a][Gg][_G_g] | %10
 [FBdf]3!p! F (F_G) (G=A) |!<(! (AB) (Bc) (^cd) (=ef) | (^fg) (ga) (ab) (bg'-)!<)! | %13
!f! (g'b'g'=e' c'=b_bg) | (g'=e'c'=b!>(! _ba_ag-)!>)! |!p! (g_gf_g'- g'f'd'b) | %16
!<(! (=g_gf=g'-) (g'f'd'[_a_a']-) | [aa']g'f'!8va(![d'd'']- [d'd'']c''=b'[d'd'']-!<)! | %18
!f! ([d'd'']c''[=e'=e''][d'd'']-) ([d'd'']c''[e'e''][d'd'']-) | %19
!<(! ([d'd'']!8va)!c'[=e=e'][dd']-) ([dd']c'!<)!!ff![aa'][gg']) | %20
"_dim." z!>(! (Ag_g) z (A=g_g)!>)! |!p! z (_A_gf) z (=Gf=e) |!pp! z (_E_ed) z (Edc) | %23
 z (_DcB) z (CBA) ||[M:2/4] z (A,G_G) ||[M:4/4]!p! z (Bb=a) z!<(! (B_ag) | z (_A_gf) z (F_e=d) | %27
 z (Dd!<)!c)!f! z (Dc_c) | z!p! (Bc'_c' b=a_a_c-) |!<(! (cB_ag _gf=e_d'-)!<)! | %30
!f! (d'=d'[=a=a'][gg']) (^cd[Aa][Gg]) |!<(! (=ef[cc'][Bb]) (ab[aa'][gg']-)!<)! | %32
!f! [gg'][^g=b]([ac']=g'-) g'([gb][ac'])g'- |!<(! g'[^g=b]([ac']=g'-) g'[gb]([ac']g'-)!<)! | %34
!ff! g'[^g=b][ac'][=g=g']- [gg'][_g_g'][ff'][=e=e'] | %35
 [_e_e'][cc'][=B=b][_B_b] [Aa][_A_a][Gg][_G_g] | [FBdf]3!p! F (F_G) (G=A) | %37
!<(! (AB) (Bc) (^cd) (=ef) | (^fg) (ga) (ab) (bg'-)!<)! |!f! (g'b'g'=e' c'=b_bg) | %40
 (g'=e'c'=b!>(! _ba_ag-)!>)! |!p! (g_gf_g'- g'f'd'b) |!<(! (=g_gf=g'-) (g'f'd'[_a_a']-) | %43
 [aa']g'f'!8va(![d'd'']- [d'd'']c''=b'[d'd'']-!<)! | %44
!f! ([d'd'']c''[=e'=e''][d'd'']-) ([d'd'']c''[e'e''][d'd'']-) | %45
!<(! ([d'd'']!8va)!c'[=e=e'][dd']-) ([dd']c'[aa']!ff![gg'])!<)! | %46
"_dim." z!>(! (Ag_g) z (A=g_g)!>)! |!p! z (_A_gf) z (=Gf=e) |!pp! z (_G_ed) z (Edc) | %49
 z (CBA) z (B,=GF) |!p! z!>(! (_Gfe) z (Edc) | z (CBA) z (B,=G_G)!>)! |!p! z (Bb=a) z!<(! (B_ag) | %53
 z (_A_gf) z (F_e=d) | z (Ddc) z (D!<)!!f!c_c) |!p! z (Bc'_c' b=a_a_c-) | %56
!<(! (_cB_ag _gf=e_d'-)!<)! |!f! (d'=d'[=a=a'][gg']) (^cd[=A=a][Gg]) | %58
!<(! (=ef[cc'][Bb]) (ab[aa'][gg']-)!<)! |!f! [gg'][^g=b]([ac']=g'-) g'([gb]([ac'])g'-) | %60
!<(! g'[^g=b][ac']!>![=Bb] !>![cc']!>![dd']!>![ee']!>![=e=e']!<)! | %61
!ff! [fbd'f']3 [ff'] [=e=e']2 [_e_e']2 | [dd']2 [_d_d']2 ([cc'] [gg']2) [_g_g'] | %63
 [fbd'f']3 [ff'] [=e=e']2 [_e_e']2 | [dd']2 [_d_d']2 ([cc'] [aa']2) [gg'] | %65
!ff! [fb=d'f']3 [dd']- [dd'][ee'][aa'][gg'] | [fbd'f']3 [dd']- [dd'][ee'][aa'][gg'] | %67
 ([ff']b)[aa'][gg'] ([ff']b)[aa'][gg'] | ([ff']b)[aa'][gg'] ([ff']b)[aa'][gg'] | %69
!8va(! [a_e'a'][be'b']([be'b']b) [ae'a'][be'b']([be'b']b) | %70
 [ae'a'][be'b']([be'b']b) [ae'a'][be'b'][be'b'][c'c''] | %71
"^beschleunigend" [^c'a'^c''][d'b'd''] [d'b'd'']2 [c'a'c''][d'b'd''] [d'b'd'']2 | %72
 [^c'a'^c''][d'b'd''] [d'b'd'']2 [c'a'c''][d'b'd''] [d'b'd'']2 | %73
 [^c'a'^c''][d'b'd''] [d'b'd'']2 [c'a'c''][d'b'd''] [d'b'd'']2 | %74
 [^c'a'^c''][d'b'd''] [d'b'd'']2 [c'a'c''][d'b'd''] [d'b'd'']2 | %75
 [^c'a'^c''][d'b'd''] [d'b'd'']2!8va)! [^ca^c'][dbd'] [dbd']2 | %76
 [^CA^c][DBd] [DBd]2[K:bass] [^C,A,^C][D,B,D] [D,B,D]2 |!fff! [D,B,D]8 |[K:treble] [dbd']2 z2 z4 |] %79
V:3
 z [F,,F,][F,,F,][F,,F,] z [F,,F,]z[F,,F,]- | [F,,F,] [^F,,^F,]2 [G,,G,]2 [^G,,^G,]2 [A,,A,] | %2
 z [^F,,^F,][F,,F,][F,,F,]- [F,,F,] [G,,G,]2 [_A,,_A,]- | %3
 [A,,A,] [=A,,=A,]2 [B,,B,]2 [=B,,=B,]2 [C,C] | z [B,CE][B,CE][B,CE] [B,CE]2 [A,A]2 | %5
[K:treble] z [CDF][CDF][CDF] [=B,DF]2 [Cc]2 | z [EF_A][EFA][EFA] [EFA]2 [=EGBc]2 | %7
 [^D=Ac]2 [=E_Bc]2 [DAc]2 [EBc]2 |[K:bass] [F,,F,] [F,C_E] [F,C_E]4 [_G,CE]2- | %9
 [G,CE][F,CE][F,CE][F,CE]- [F,CE]2 [F,CE]2 | [B,,F,B,][F,B,D] [F,B,D]2 [F,_D]2 [F,C]2 | %11
 [B,,B,]2 [B,,A,]2 [B,,_A,]2 [_A,,D,B,]2 | [G,,E,B,][G,B,E] [G,B,E]4 [G,B,E]2 | %13
 [=E,G,B,C=E][E,G,B,CE] [E,G,B,CE]4 [E,G,B,CE]2- | %14
 [E,G,B,CE]2 [=E,G,B,C=E][E,G,B,CE] [E,G,B,CE]2 [E,G,B,CE]2 | %15
 [_E,F,A,_E][E,F,A,E] [E,F,A,E]2 [D,F,B,D][D,F,B,D] [D,F,B,D]2 | %16
 [E,F,A,E][E,F,A,E] [E,F,A,E]2 [D,F,B,D][D,F,B,D] [D,F,B,D]2 | %17
 [F,^G,=B,F][F,G,B,F] [F,G,B,F]2[K:treble] [CFA][CFA] [CF_A]2 | %18
 [C=Ac][CAc] [C^G=B]2 [CAc][CAc] [CGB]2 | [CAc][CAc] [C^G=B]2 [C=G_B][CGB] [C=EB]2 | %20
[K:bass] [F,_E][F,E] [F,E]2 [F,E][F,E] [F,E]2 | [F,D][F,D] [F,D]2 [F,_D][F,D] [F,D]2 | %22
 [F,,C,][F,,C,] [F,,C,]2 [F,,C,][F,,C,] [F,,C,]2 | %23
 [F,,=E,][F,,E,] [F,,E,]2 [F,,C,][F,,C,] [F,,C,]2 ||[M:2/4] [F,,E,][F,,E,] [F,,E,]2 || %25
[M:4/4] [_A,,D,_A,][A,,D,A,] [A,,D,A,]2 [A,,B,,A,][A,,B,,A,] [A,,B,,A,]2 | %26
 [_A,,_C,_A,][A,,C,A,] [A,,C,A,]2 [A,,B,,A,][A,,B,,A,] [A,,B,,A,]2 | %27
 [_A,,B,,_A,][A,,B,,A,] [A,,B,,A,]2 [A,,B,,F,][A,,B,,F,] [A,,B,,F,]2 | %28
[K:treble] [G,B,EG][G,B,EG] [G,B,EG]2 [_A,B,D_A][A,B,DA] [A,B,DA]2 | %29
 [G,B,EG][G,B,EG] [G,B,EG]2 [B,_GB][B,GB] [B,GB]2 | %30
 [FB=d][FBd] [FB^c=e]2[K:bass] [F,B,=D][F,B,D] [F,B,^C=E]2 | %31
 [D,F,B,D][D,F,B,D] [D,F,B,D]2 !arpeggio![C,G,B,=E][G,B,E] [G,B,E]2 | %32
 [F,,F,][K:treble][F=Bd] [Fc_e]2 [FBd][FBd] [Fce]2 | [F=Bd][FBd] [Fce]2 [FBd][FBd] [Fce]2 | %34
 [F=Bd][FBd] [Fce]2[K:bass] [F,,C,E,A,]4- | [F,,C,E,A,] z z2 z4 | %36
 [B,,F,B,]!p![F,B,D] [F,B,D]2 [F,_D]2 [F,C]2 | [B,,B,]2 [B,,A,]2 [B,,_A,]2 [_A,,D,B,]2 | %38
 [G,,E,B,][G,B,E] [G,B,E]4 [G,B,E]2 | [=E,G,B,C=E][E,G,B,CE] [E,G,B,CE]4 [E,G,B,CE]2- | %40
 [=E,G,B,C=E]2 [E,G,B,CE][E,G,B,CE] [E,G,B,CE]2 [E,G,B,CE]2 | %41
 [_E,F,A,_E][E,F,A,E] [E,F,A,E]2 [D,F,B,D][D,F,B,D] [D,F,B,D]2 | %42
 [E,F,A,E][E,F,A,E] [E,F,A,E]2 [D,F,B,D][D,F,B,D] [D,F,B,D]2 | %43
 [F,^G,=B,F][F,G,B,F] [F,G,B,F]2[K:treble] [CFA][CFA] [CF_A]2 | %44
 [C=Ac][CAc] [C^G=B]2 [CAc][CAc] [CGB]2 | [CAc][CAc] [C^G=B]2 [C=G_B][CGB] [C=EB]2 | %46
[K:bass] [F,_E][F,E] [F,E]2 [F,E][F,E] [F,E]2 | [F,D][F,D] [F,D]2 [F,_D][F,D] [F,D]2 | %48
 [F,,C,][F,,C,] [F,,C,]2 [F,,C,][F,,C,] [F,,C,]2 | %49
 [F,,C,][F,,C,] [F,,C,]2 [F,,C,][F,,C,] [F,,C,]2 | %50
 [F,,_E,][F,,E,] [F,,E,]2 [F,,E,][F,,E,] [F,,E,]2 | %51
 [F,,_E,][F,,E,] [F,,E,]2 [F,,E,][F,,E,] [F,,E,]2 | %52
 [_A,,D,_A,][A,,D,A,] [A,,D,A,]2 [A,,B,,A,][A,,B,,A,] [A,,B,,A,]2 | %53
 [_A,,_C,_A,][A,,C,A,] [A,,C,A,]2 [A,,B,,A,][A,,B,,A,] [A,,B,,A,]2 | %54
 [_A,,B,,_A,][A,,B,,A,] [A,,B,,A,]2 [A,,B,,F,][A,,B,,F,] [A,,B,,F,]2 | %55
[K:treble] [G,B,EG][G,B,EG] [G,B,EG]2 [_A,B,D_A][A,B,DA] [A,B,DA]2 | %56
 [G,B,EG][G,B,EG] [G,B,EG]2 [B,_GB][B,GB] [B,GB]2 | %57
 [FB=d][FBd] [FB^c=e]2[K:bass] [F,B,D][F,B,D] [F,B,^C=E]2 | %58
 [D,F,B,D][D,F,B,D] [D,F,B,D]2 !arpeggio![C,G,B,=E][G,B,E] [G,B,E]2 | %59
 [F,,F,][K:treble][F=Bd] [Fc_e]2 [FBd][FBd] [Fce]2 | [F=Bd][FBd] [Fce]4[K:bass] [F,CEF]2 | %61
 [B,,,F,,B,,][F,B,D] [F,B,D]2- [F,B,D] [F,_D]2 [F,C]- | [F,C] [F,=B,]2 [F,_B,]- [F,B,]2 [F,A,E]2 | %63
 [B,,,F,,B,,][F,B,D] [F,B,D]2- [F,B,D] [F,_D]2 [F,C]- | [F,C] [F,=B,]2 [F,_B,]- [F,B,]2 [F,A,E]2 | %65
 [B,,,F,,B,,][F,B,D] [F,=B,D]2 [F,CE]2 [F,^C=E]2 | %66
 [B,,,F,,B,,][F,_B,D] [F,=B,D]2 [F,=C_E]2 [F,^C=E]2 | [B,DF]2 [F,B,^C=E]2 [B,DF]2 [F,B,CE]2 | %68
 [B,DF]2 [F,B,^C=E]2 [B,DF]2 [F,B,CE]2 | %69
 [G,,B,,_E,]/G,/[G,,B,,E,]/G,/ [G,,B,,E,]2 [G,,B,,E,]/G,/[G,,B,,E,]/G,/ [G,,B,,E,]2 | %70
 [G,,B,,E,]/G,/[G,,B,,E,]/G,/ [G,,B,,E,]2 [G,,B,,E,]/G,/[G,,B,,E,]/G,/ [G,,B,,E,]2 | %71
 [B,,,B,,]3 [=E,,=E,] [F,,F,]3 [A,,A,] | [B,,B,]3 [=E,=E] [F,F]3[K:treble] [A,A] | %73
 [B,B]3 [=E=e] [Ff]3 [Ee] | [Ff]3 [=E=e] [Ff]3 [Ee] | [Ff]2 z2[K:bass] [F,F]2 z2 | %76
 [F,,F,]2 z2 [F,,,F,,]2 z2 | !//-![B,,,F,,]2 B,,2 !//-![B,,,F,,]2 B,,2 | [B,,F,B,]2 z2 z4 |] %79
V:4
 x8 | x8 | x8 | x8 | x8 | x8 | x8 | x8 | x8 | x8 | x8 | x8 | x8 | x8 | x8 | x8 | x8 | x3!8va(! x5 | %18
 x8 | x!8va)! x7 | x A c2 x A c2 | x _A _c2 x G B2 | x E =A2 x E _G2 | x _D =G2 x C _E2 || %24
[M:2/4] x A, C2 ||[M:4/4] x B f2 x B =e2 | x _A _c2 x F B2 | x D B2 x D _A2 | x8 | x8 | x8 | x8 | %32
 x8 | x8 | x8 | x8 | x8 | x8 | x8 | x8 | x8 | x8 | x8 | x3!8va(! x5 | x8 | x!8va)! x7 | %46
 x A c2 x A c2 | x _A _c2 x G B2 | x _G =A2 x E _G2 | x C E2 x B, [A,E]2 | x _G A2 x E _G2 | %51
 x C E2 x B, [A,E]2 | x B f2 x B =e2 | x _A _c2 x F B2 | x D B2 x D _A2 | x8 | x8 | x8 | x8 | x8 | %60
 x8 | x8 | x8 | x8 | x8 | x8 | x8 | x8 | x8 |!8va(! x8 | x8 | x8 | x8 | x8 | x8 | x4!8va)! x4 | %76
 x4[K:bass] x4 | x8 |[K:treble] x8 |] %79

